**kern	**kern
*clefF4	*clefG2
*k[f#c#]	*k[f#c#]
*M2/4	*M2/4
*MM108	*MM108
=1	=1
8D	8a
8D	8dd
8AA	8dd
8AA	8dd
=2	=2
8D	8ff#
8D	8dd
8D 8F#	8ff#
8D 8F#	8aa
=3	=3
8D 8F#	4aa
8D 8F#	.
8D	4ff#
8D	.
=4	=4
8AA	8a
8AA	8dd
8AA 8E	8dd
8AA 8E	8dd
=5	=5
8AA	8ee
8AA	8cc#
8D	8ee
8D	8gg
=6	=6
8D	4ff#
8D	.
8AA	4dd
8AA	.
=7	=7
8D	8a
8D	8dd
8G 8B	8dd
8G 8B	8dd
=8	=8
8G	8ff#
8G	8dd
8D	8ff#
8E	8aa
=9	=9
8AA	4bb
8AA	.
8AA	4gg
8AA	.
=10	=10
8D	8ff#
8AA	8ee
8D	8dd
8D	8ee
=11	=11
8D	8ff#
8D	8ee
8AA	8cc#
8AA	8ee
=12	=12
8D	4dd
8D	.
8D 8F#	4dd
8D 8F#	.
=13	=13
8D 8F#	8a
8D 8F#	8dd
8D	8dd
8D	8dd
=14	=14
8AA	8ff#
8AA	8dd
8AA 8E	8ff#
8AA 8E	8aa
=15	=15
8AA	4aa
8AA	.
8D	4ff#
8D	.
=16	=16
8D	8a
8D	8dd
8AA	8dd
8AA	8dd
=17	=17
8D	8ee
8D	8cc#
8G 8B	8ee
8G 8B	8gg
=18	=18
8G	4ff#
8G	.
8D	4dd
8E	.
=19	=19
8AA	8a
8AA	8dd
8AA	8dd
8AA	8dd
=20	=20
8D	8ff#
8AA	8dd
8D	8ff#
8D	8aa
=21	=21
8D	4bb
8D	.
8AA	4gg
8AA	.
=22	=22
8D	8ff#
8D	8ee
8D 8F#	8dd
8D 8F#	8ee
=23	=23
8D 8F#	8ff#
8D 8F#	8ee
8D	8cc#
8D	8ee
=24	=24
8AA	4dd
8AA	.
8AA 8E	4dd
8AA 8E	.
=25	=25
8AA	8a
8AA	8dd
8D	8dd
8D	8dd
=26	=26
8D	8ff#
8D	8dd
8AA	8ff#
8AA	8aa
=27	=27
8D	4aa
8D	.
8G 8B	4ff#
8G 8B	.
=28	=28
8G	8a
8G	8dd
8D	8dd
8E	8dd
=29	=29
8AA	8ee
8AA	8cc#
8AA	8ee
8AA	8gg
=30	=30
8D	4ff#
8AA	.
8D	4dd
8D	.
=31	=31
8D	8a
8D	8dd
8AA	8dd
8AA	8dd
=32	=32
8D	8ff#
8D	8dd
8D 8F#	8ff#
8D 8F#	8aa
=33	=33
8D 8F#	4bb
8D 8F#	.
8D	4gg
8D	.
=34	=34
8AA	8ff#
8AA	8ee
8AA 8E	8dd
8AA 8E	8ee
=35	=35
8AA	8ff#
8AA	8ee
8D	8cc#
8D	8ee
=36	=36
8D	4dd
8D	.
8AA	4dd
8AA	.
=37	=37
8D	8a
8D	8dd
8G 8B	8dd
8G 8B	8dd
=38	=38
8G	8ff#
8G	8dd
8D	8ff#
8E	8aa
=39	=39
8AA	4aa
8AA	.
8AA	4ff#
8AA	.
=40	=40
8D	8a
8AA	8dd
8D	8dd
8D	8dd
=41	=41
2r	8ee
.	8cc#
.	8ee
.	8gg
=42	=42
2r	4ff#
.	4dd
=43	=43
2r	8a
.	8dd
.	8dd
.	8dd
=44	=44
2r	8ff#
.	8dd
.	8ff#
.	8aa
=45	=45
2r	4bb
.	4gg
=46	=46
2r	8ff#
.	8ee
.	8dd
.	8ee
=47	=47
2r	8ff#
.	8ee
.	8cc#
.	8ee
=48	=48
2r	4dd
.	4dd
==	==
*-	*-
